-- *********************** user defined functions ***********************


-- FADE OUT *****

byeByeWithGas t = mapM_ (\i -> xfadeIn i t silence) [1 .. 16]

byeByeWithGas 4

--The mapM_ function takes each number in the list [1 .. 16] and gives it to (\i -> xfadeIn i t silence). The \ is called 'lambda' and puts the number in the i variable. Then that gets used in the xfadeIn.


-- FADE IN *****
-- welcomeWithGas t = mapM_ (\i -> fadeOutFrom i t silence) [1 .. 16]

--FLOOD TEXT

newtype Text = Text String
instance Show Text where show (Text str) = str
prettyPut s = putStr . show $ Text s
mae_love_u s = mapM_  prettyPut $ replicate 150 s

mae_love_u "See u soon, in person "

-- *********************** various Haskell tips ***********************

addSix :: Num a => a -> a

addSix x = x + 6

addSix 3
--returns 9

----------

let
  a = 1.5
  b = floor a
  c = fromIntegral b

-- *********************** comment ***********************

--create an array for a specific user (e.g. _USER1) and map the respective param (e.g slow == _USER1[0], chrusher == _USER1[1] etc) in the tidal code
--in the tidal code i ONLY have to put the _USER number, so it foods the entire pre constructed pattern  show -an alternative could be the one that pre-select a range in the array for the specific param, and then call it in the functions

--let _USER1 = (cT 2 "slow")
--let _pattern_1 =

-- *********************** useful command ***********************

tidal_version

:t --command for understand a function

cmd + "dot" -- alternative way for hush

hush

setcps (160/60/4)

--metronome

d1 $ n "2 1 1 1" # s "hi" #gain 0.85


-- *********************** OSC message examples ***********************
/ctrl sf param 0.4
/ctrl ss code msgn
--the first value is a (s)tring and the second value is a(f)loat
--cF is what you use for floating point controls. The second 0 or 1, for when tidal hasn't received that control yet.
--cS for strings
--cI for integers
--cT for time values (for using e.g. as the first parameter of fast/slow)
--cR for ratios

(cF 0.7 "filter")
--The first parameter (0.7) is the default value, for when tidal hasn't received that control.



--OSC for evaluating Atom cells
--Ip: 127.0.0.1 / Port: 3333
-- /atom/eval/type

--arguments
--line (evaluate single line)
--multi_line (evaluate code block)
--whole_editor (evaluate all the editor)

--row
--column


-- *********************** LIVE TEST ***********************

--user param control

let _slow = (cT 2 "slow")
    _crusher = (cF 1 "crusher")
    _cutoff = (cF 400 "cutoff")
    _offset = (cT 0 "offset")

--param control hard reset

let _slow = 2
    _crusher = 1
    _cutoff = 400
    _offset = 0


-- AUDIO TEST 1

setcps (160/60/4)

d2 $ stack [slow _slow $ loopAt 1 $ striate 4 $ sound "break:1*4" #gain 0.95, sound "clubkick:4(5,8)" #gain 1.3 #room 0.1]

d3 $ speed "1*2 2 2 4*3" # s "jungbass:6" #gain 0.9 # squiz _crusher

d4 $ off 0.125 (# crush 3) $ n "0 1 2 3" # sound "bass" |+ n "2 5 6" #cutoff (range 0 _cutoff sine)

d4 $ off _offset (# crush 3) $ sound "rave:3(5,8)" #gain 0.88

d4 silence

byeByeWithGas 4

-- AUDIO TEST 2

setcps(170/60/4)

d2 $ sometimes (#crush _crusher)
  $ n "3 3 [4 3?] 5?0.1"
  -- $ n "6 6?*6"
  -- $ n "6*4"
  # s "gab"
  #delay 0.3 #delayt 0.33 #delayfb 0.4
  #cutoff (range 400 15000 saw)
  #gain 1.3


d3 $ sometimes (hurry _slow)
  $ jux rev
  $ n "2 2 6 7"
  |<| " [0 0 0] . 4 5"
  # s "rave2"
  #room 0.2 #sz 0.6
  #gain 0.70

d4 $ loopAt 4 $ splice 16 "0 2 6 9 12 7 14 2?" $ sound "sr:2" #cutoff _cutoff #gain 1

d5 $ off _offset (#pan (range 0 1 sine - 1)) $ loopAt 16 $ splice 16 "0..15" $ sound "theme:4"

d4 silence



once $ s "cazzate:3" -- la scoteca

once $ s "cazzate:6" -- horn

byeByeWithGas 8


-- AUDIO TEST 3

setcps (100/60/4)

d2 $ stack[loopAt 4 $ sound "theme:15", off _offset (# distort 2) $ loopAt 4 $ sound "theme:15" #gain 0.7]

d3 $ n "1 ~ ~ 1 ~ 1 ~ ~" # s "jungbass:2" #squiz _crusher

d4 $ stack[n "[1*2](5,8)" # s "808oh:5", n "1 ~ ~ 1 ~ 1 ~ ~" # s "808bd:1" #gain 1.5, every 2 (sometimes (#speed _crusher)) $ n "16(10,16)" # s "cpu"]

d5 $ off _offset (#pan (range 0 1 sine - 1)) $ loopAt 3 $ splice 16 "4 6 ~ ~ 1 15 14 3 4 2! ~" $ sound "sr:4"


byeByeWithGas 8



-- **************************************************************************************
