-- *********************** useful command

tidal_version

:t --command for understand a function

cmd + "dot" -- alternative way for hush

hush

setcps (160/60/4)


-- *********************** comments section
--see osc_test.scl for OSC server initialization


-- *********************** OSC message examples
/ctrl sf param 0.4
/ctrl ss code msgn
--the first value is a (s)tring and the second value is a(f)loat
--cF is what you use for floating point controls. The second 0 or 1, for when tidal hasn't received that control yet.
--cS for strings
--cI for integers
--cT for time values (for using e.g. as the first parameter of fast/slow)
--cR for ratios

-- *********************** audio/OSC test


d1 $ every 2 (# djf (cF 1 "user1")) $ sound "bd sd [~ bd] [cp bd*2]" #gain 0.9

d2 $ slow (cT 0 "user2") $ loopAt (cT 0 "user4") $ striate 4 $ sound "break:8 break:9"

d3 $ every 2 (hurry (cT 0 "user3")) $ loopAt (cT 0 "user4") $ chop 8 $ n "3 4" # sound "theme:15"

d4 $ s "808" # n (cF 1 "user4")

d4 silence
